X:2
T:Take Five
C:Paul Desmond
L:1/8
M:5/4
I:linebreak $
K:Gb
"Ebm" =AB=A_A G2"Bbm" B,2 D2 |"Ebm" E6"Bbm" (3GFE D2 |"Ebm" E6"Bbm" (3D=CB, A,2 |
"Ebm" B,6"Bbm" B,EGA |$"Ebm" =AB=A_A G2"Bbm" B,2 D2 |"Ebm" E6"Bbm" (3DCB, A,2 |
"Ebm" B,6"Bbm" (3GFE D2 |"Ebm" E6 "_Fine" z4 |]$"B" e g2 e c2 A"Fø"Bc=c |
d"Bbm" f2 d B2"Ebm" GA=AB | c"Abm" e2 c A2"Db7" FGA=A |"Gb" B=ABc d2 d=cd=d |$
"B" e g2 e c2"Fø" ABc=c | d"Bbm" f2 d B2"Ebm" GA=AB | c"Abm" e2 c A2"Db7" FAdc |
"Fø" B6"Bb7" "_D.C. al Fine" B,EGA ||

